X: 422
M: 6/8
L: 1/8
K: Bb
V: 1
e |\
d2f {g}~f2d | e2g cde | {e}dcB {c}BAB | c2A {=E}F2e |\
d2f {g}~f2d | e2g cde | {e}dcB {c}BAB | (d3 c2).F |
!p!B>cB FDE | F2F ~F2d | e>fe dcB | (d3 c2).F |\
V: 2 clef=bass middle=d
z |\
z |\
bd'f' bf'_a' | be'g' _ac'f' | bd'f' bd'f' | f2f' f2z |


